dist/img/calendar.svg

<svg xmlns="http://www.w3.org/2000/svg" fill="none" viewBox="0 0 16 16"><path fill="#000" d="M3 1v1h-.5C1.676 2 1 2.676 1 3.5v9c0 .824.676 1.5 1.5 1.5h10c.824 0 1.5-.676 1.5-1.5v-9c0-.824-.676-1.5-1.5-1.5H12V1h-1v1H4V1H3zm-.5 2H3v1h1V3h7v1h1V3h.5c.281 0 .5.219.5.5V5H2V3.5c0-.281.219-.5.5-.5zM2 6h11v6.5c0 .281-.219.5-.5.5h-10a.494.494 0 01-.5-.5V6zm3 1v1h1V7H5zm2 0v1h1V7H7zm2 0v1h1V7H9zm2 0v1h1V7h-1zM3 9v1h1V9H3zm2 0v1h1V9H5zm2 0v1h1V9H7zm2 0v1h1V9H9zm2 0v1h1V9h-1zm-8 2v1h1v-1H3zm2 0v1h1v-1H5zm2 0v1h1v-1H7z"/></svg>

<svg width="16" height="16" viewBox="0 0 16 16" fill="none" xmlns="http://www.w3.org/2000/svg">
<path d="M3 1V2H2.5C1.67578 2 1 2.67578 1 3.5V12.5C1 13.3242 1.67578 14 2.5 14H12.5C13.3242 14 14 13.3242 14 12.5V3.5C14 2.67578 13.3242 2 12.5 2H12V1H11V2H4V1H3ZM2.5 3H3V4H4V3H11V4H12V3H12.5C12.7812 3 13 3.21875 13 3.5V5H2V3.5C2 3.21875 2.21875 3 2.5 3ZM2 6H13V12.5C13 12.7812 12.7812 13 12.5 13H2.5C2.21875 13 2 12.7812 2 12.5V6ZM5 7V8H6V7H5ZM7 7V8H8V7H7ZM9 7V8H10V7H9ZM11 7V8H12V7H11ZM3 9V10H4V9H3ZM5 9V10H6V9H5ZM7 9V10H8V9H7ZM9 9V10H10V9H9ZM11 9V10H12V9H11ZM3 11V12H4V11H3ZM5 11V12H6V11H5ZM7 11V12H8V11H7Z" fill="black"/>
</svg>
